Numix-Light-GalliumOS/16/status/renamed-synapse.svg

<?xml version="1.0" encoding="UTF-8" standalone="no"?>
<svg
   xmlns:dc="http://purl.org/dc/elements/1.1/"
   xmlns:cc="http://creativecommons.org/ns#"
   xmlns:rdf="http://www.w3.org/1999/02/22-rdf-syntax-ns#"
   xmlns:svg="http://www.w3.org/2000/svg"
   xmlns="http://www.w3.org/2000/svg"
   xmlns:sodipodi="http://sodipodi.sourceforge.net/DTD/sodipodi-0.dtd"
   xmlns:inkscape="http://www.inkscape.org/namespaces/inkscape"
   width="16"
   height="16"
   viewBox="0 0 16 16"
   id="svg3001"
   version="1.1"
   inkscape:version="0.91 r"
   sodipodi:docname="renamed-synapse.svg">
  <metadata
     id="metadata3071">
    <rdf:RDF>
      <cc:Work
         rdf:about="">
        <dc:format>image/svg+xml</dc:format>
        <dc:type
           rdf:resource="http://purl.org/dc/dcmitype/StillImage" />
      </cc:Work>
    </rdf:RDF>
  </metadata>
  <sodipodi:namedview
     pagecolor="#ffffff"
     bordercolor="#666666"
     borderopacity="1"
     objecttolerance="10"
     gridtolerance="10"
     guidetolerance="10"
     inkscape:pageopacity="0"
     inkscape:pageshadow="2"
     inkscape:window-width="1280"
     inkscape:window-height="998"
     id="namedview3069"
     showgrid="true"
     inkscape:zoom="29.5"
     inkscape:cx="8.4931641"
     inkscape:cy="4.7301392"
     inkscape:window-x="0"
     inkscape:window-y="0"
     inkscape:window-maximized="1"
     inkscape:current-layer="svg3001">
    <inkscape:grid
       type="xygrid"
       id="grid3126" />
  </sodipodi:namedview>
  <defs
     id="defs3003">
    <clipPath
       id="9">
      <path
         d="M 7.4375 2.183594 L 7.4375 3.492188 C 5.589844 3.726562 4.089844 5.085938 3.636719 6.867188 L 4.804688 6.867188 C 5.285156 5.578125 6.550781 4.578125 7.9375 4.585938 C 7.972656 4.585938 8.003906 4.585938 8.039062 4.585938 C 8.542969 4.589844 9.039062 4.714844 9.484375 4.941406 C 10.292969 5.308594 10.894531 6.03125 11.1875 6.867188 L 12.363281 6.867188 C 11.910156 5.085938 10.410156 3.726562 8.5625 3.492188 L 8.5625 2.183594 Z M 3.636719 9.136719 C 4.089844 10.921875 5.589844 12.277344 7.4375 12.511719 L 7.4375 13.820312 L 8.5625 13.820312 L 8.5625 12.511719 C 10.410156 12.277344 11.910156 10.921875 12.363281 9.136719 L 11.203125 9.136719 C 10.746094 10.492188 9.339844 11.46875 7.917969 11.417969 C 6.53125 11.425781 5.273438 10.425781 4.804688 9.136719 Z "
         id="path3045" />
    </clipPath>
    <clipPath
       id="B">
      <path
         d="M 8 5.472656 C 6.632812 5.472656 5.519531 6.585938 5.519531 7.976562 C 5.519531 7.976562 5.503906 8.210938 5.574219 8.476562 L 9.386719 8.476562 C 9.28125 8.765625 9.097656 9.023438 8.847656 9.199219 C 8.269531 9.65625 7.398438 9.492188 6.90625 8.976562 L 5.726562 8.976562 C 6.109375 9.859375 6.984375 10.476562 8 10.476562 C 9.371094 10.476562 10.480469 9.355469 10.480469 7.976562 C 10.480469 7.976562 10.480469 7.71875 10.433594 7.472656 L 6.621094 7.472656 C 6.835938 6.925781 7.347656 6.484375 7.941406 6.480469 C 7.972656 6.476562 8.003906 6.476562 8.03125 6.476562 C 8.429688 6.488281 8.816406 6.675781 9.085938 6.972656 L 10.273438 6.972656 C 9.890625 6.089844 9.019531 5.472656 8 5.472656 Z "
         id="path3051" />
    </clipPath>
  </defs>
  <g
     clip-path="url(#9)"
     id="g3059"
     style="fill:#353535;fill-opacity:1">
    <path
       d="m 7.4375,2.183594 0,1.308594 c -1.847656,0.234374 -3.347656,1.59375 -3.800781,3.375 l 1.167969,0 C 5.285156,5.578125 6.550781,4.578125 7.9375,4.585938 c 0.035156,0 0.066406,0 0.101562,0 0.503907,0.00391 1,0.128906 1.445313,0.355468 0.808594,0.367188 1.410156,1.089844 1.703125,1.925782 l 1.175781,0 C 11.910156,5.085938 10.410156,3.726562 8.5625,3.492188 l 0,-1.308594 z M 3.636719,9.136719 c 0.453125,1.785156 1.953125,3.140625 3.800781,3.375 l 0,1.308593 1.125,0 0,-1.308593 c 1.847656,-0.234375 3.347656,-1.589844 3.800781,-3.375 l -1.160156,0 c -0.457031,1.355469 -1.863281,2.332031 -3.285156,2.28125 -1.386719,0.0078 -2.644531,-0.992188 -3.113281,-2.28125 z"
       id="path3061"
       inkscape:connector-curvature="0"
       style="fill:#353535;fill-opacity:1" />
  </g>
  <g
     clip-path="url(#B)"
     id="g3065"
     style="fill:#353535;fill-opacity:1">
    <path
       d="m 8,5.527344 c -1.367188,0 -2.480469,1.117187 -2.480469,2.503906 0,0 -0.015625,0.234375 0.054688,0.5 l 3.8125,0 C 9.28125,8.820312 9.097656,9.082031 8.847656,9.253906 8.269531,9.714844 7.398438,9.546875 6.90625,9.03125 l -1.179688,0 c 0.382813,0.882812 1.257813,1.5 2.273438,1.5 1.371094,0 2.480469,-1.117188 2.480469,-2.5 0,0 0,-0.257812 -0.04687,-0.5 l -3.8125,0 C 6.835938,6.984375 7.347656,6.539062 7.941406,6.535156 c 0.03125,0 0.0625,0 0.089844,0 0.398438,0.00781 0.785156,0.199219 1.054688,0.496094 l 1.1875,0 C 9.890625,6.148438 9.019531,5.527344 8,5.527344 z"
       id="path3067"
       inkscape:connector-curvature="0"
       style="fill:#353535;fill-opacity:1" />
  </g>
</svg>

<svg xmlns="http://www.w3.org/2000/svg" viewBox="0 0 16 16">
 <g style="fill:#353535;fill-opacity:1">
  <path d="m 7.438 2.184 0 1.309 c -1.848 0.234 -3.348 1.594 -3.801 3.375 l 1.168 0 c 0.48 -1.289 1.746 -2.289 3.133 -2.281 c 0.035 0 0.066 0 0.102 0 0.504 0.004 1 0.129 1.445 0.355 0.809 0.367 1.41 1.09 1.703 1.926 l 1.176 0 c -0.453 -1.781 -1.953 -3.141 -3.801 -3.375 l 0 -1.309 z m -3.801 6.953 c 0.453 1.785 1.953 3.141 3.801 3.375 l 0 1.309 1.125 0 0 -1.309 c 1.848 -0.234 3.348 -1.59 3.801 -3.375 l -1.16 0 c -0.457 1.355 -1.863 2.332 -3.285 2.281 -1.387 0.008 -2.645 -0.992 -3.113 -2.281 z"/>
 </g>
 <g style="fill:#353535;fill-opacity:1">
  <path d="m 8 5.527 c -1.367 0 -2.48 1.117 -2.48 2.504 0 0 -0.016 0.234 0.055 0.5 l 3.812 0 c -0.105 0.289 -0.289 0.551 -0.539 0.723 -0.578 0.461 -1.449 0.293 -1.941 -0.223 l -1.18 0 c 0.383 0.883 1.258 1.5 2.273 1.5 1.371 0 2.48 -1.117 2.48 -2.5 0 0 0 -0.258 -0.047 -0.5 l -3.813 0 c 0.215 -0.547 0.727 -0.992 1.32 -0.996 c 0.031 0 0.063 0 0.09 0 0.398 0.008 0.785 0.199 1.055 0.496 l 1.188 0 c -0.383 -0.883 -1.254 -1.504 -2.273 -1.504 z"/>
 </g>
</svg>
